X:1
T:Daytona, 87.87.77.77
T:Daytona, 87.87.77.77
T:Silas Jones Vail, 1874
T:Public Domain Courtesy of the Cyber Hymnal™
C:Silas Jones Vail, 1874
Z:Public Domain
Z:Courtesy of the Cyber Hymnal™
%%score ( 1 2 ) 3
L:1/8
Q:1/4=112
M:9/8
K:F
V:1 treble 
V:2 treble 
V:3 bass 
V:1
 [Fc]2 [Fc] | [Fc]3- [Fc]2 [FA] [Fd]2 [Fc] | [Fc]3 [FA]3 [FA]2 [FA] | %3
 [EB]3- [EB]2 [FA] [Fc]2 [FA] | [EG]6 [Ec]2 [Ec] | [Fc]3- [Fc]2 [FA] [Fd]2 [Fc] | %6
 [Fc]3 [FA]3 [CG]2 F | [EG]3- [EG]2 [GB] [FA]2 [EG] | F6 [Fd]2 [Fd] | [Fd]3- [Fd]2 [Fd] (B>c)[Fd] | %10
 [Fc]6 [FA]2 [FA] | [EB]3- [EB]2 [FA] [Fc]2 [FA] | [EG]6 [Ec]2 [Ec] | %13
 [Fc] [Fc]3- [Fc]2 [FB]2 [FA] | [Fd]6 [Fd]2 [Fd] | [Fc]3- [Fc]2 [FA] [EB]2 [EG] | F6 |] %17
V:2
 x3 | x9 | x9 | x9 | x9 | x9 | x8 F | x9 | F6 x3 | x6 F2 x | x9 | x9 | x9 | x9 | x9 | x9 | F6 |] %17
V:3
 [F,A,]2 [F,A,] | [F,A,]3- [F,A,]2 [F,C] [F,B,]2 [F,A,] | [F,A,]3 [F,C]3 [F,C]2 [F,C] | %3
 [G,C]3- [G,C]2 [F,C] [A,C]2 [F,C] | [C,C]6 [C,G,]2 [C,G,] | %5
 [F,A,]3- [F,A,]2 [F,C] [F,B,]2 [F,A,] | [F,A,]3 [F,C]3 [E,C]2 [D,=B,] | %7
 [C,C]3- [C,C]2 [C,C] [C,C]2 [C,B,] | [F,A,]6 [B,,B,]2 [B,,B,] | %9
 [B,,B,]3- [B,,B,]2 [B,,B,] ([D,B,]>[C,A,])[B,,B,] | [F,A,]6 [F,C]2 [F,C] | %11
 [G,C]3- [G,C]2 [F,C] [A,C]2 [F,C] | [C,C]6 [C,G,]2 [C,G,] | %13
 [F,A,] [F,A,]3- [F,A,]2 [F,A,]2 [F,C] | [B,,B,]6 [B,,B,]2 [B,,B,] | %15
 [C,A,]3- [C,A,]2 [C,C] [C,G,]2 [C,B,] | [F,A,]6 |] %17

